X:1
T:James Gibb editions
T:Softly now the light of day - Barnby
%%score [ ( 1 2 ) ( 3 4 ) ]
L:1/8
Q:1/4=66
M:4/4
K:D
V:1 treble nm="Midi_74"
V:2 treble 
V:3 bass nm="Midi_74"
V:4 bass 
V:1
"^Slow""^George Washington Doane\n(1799-1859)""^Softly now the light of day""^Joseph Barnby\n(1838-96)""^Dulce (77. 77)"!p! F2 E2 F2 G2 | %1
 E3"^1" E D4 || A2 G2 F2 ^G2 | A2 ^G2 F4 ||[M:4/4]"^cresc." B2 A2 G2 B2 | e2 d2 c4 || d2 c2 B2 GF | %7
 E3 F D4 || G4 F4 |] %9
V:2
 D2 C2 D2 D2 | C3 C D4 || E2 C2 F2 F2 | F2 ^E2 F4 ||[M:4/4] F2 ^D2 E2 E2 | G2 G2 G4 || %6
 F2 E2 D2 B,2 | C2 C2 D4 || D4 D4 |] %9
V:3
!p! A,2 A,2 A,2 B,2 | A,3 G, F,4 || E,2 A,2 A,2 D2 | C3 B, A,4 ||[M:4/4] F,2 B,2 B,2 G,2 | %5
 A,2"^1 Softly now the light of day\nfades upon my sight away;\nfree from care, from labour free,\nLord, I would commune with thee.\n\n2 Thou, whose all-pervading eye\nnaught escapes, without, within,\npardon each infirmity,\nopen fault, and secret sin.\n\n3 Soon for me the light of day\nshall for ever pass away;\nthen, from sin and sorrow free,\ntake me, Lord, to dwell with thee.\n\n4 Thou who, sinless, yet hast known\nall of man's infirmity;\nthen, from thine eternal throne,\nJesus, look with pitying eye." B,2"^dim." E4 || %6
 D2 ^A,2 B,2 E,"^rit."F, | G,2 G,2 F,4 || B,4 A,4 |] %9
V:4
 D,2 A,,2 D,2 G,,2 | A,,3 A,, B,,4 || C,2 A,,2 D,2 B,,2 | C,2 C,2 F,4 || %4
[M:4/4] ^D,2 B,,2 E,2 =D,2 | C,2 B,,2 A,,4 || B,,2 F,2 G,2 G,,2 | A,,2 A,,2 D,4 || G,,4 D,4 |] %9

